openmetadata-ui/src/main/resources/ui/src/assets/svg/dashboard.svg

<svg width="14" height="14" viewBox="0 0 14 14" fill="none" xmlns="http://www.w3.org/2000/svg">
<path d="M14 13.1797H13.1797V4.92188H10.6914V13.1797H9.87109V8.20312H7.41016V13.1797H6.58984V6.5625H4.12891V13.1797H3.30859V9.02344H0.820312V13.1797H0V14H14V13.1797Z" fill="#7147E8"/>
<path d="M14 3.28125V0H10.6914V0.820313H12.5997L8.64062 4.75204L5.35937 1.47079L0.120173 6.68268L0.700134 7.26264L5.35937 2.63077L8.64062 5.91202L13.1797 1.4003V3.28125H14Z" fill="#7147E8"/>
</svg>

<svg xmlns="http://www.w3.org/2000/svg" width="14" height="14" fill="none"><path fill="#7147E8" d="M14 13.18h-.82V4.922H10.69v8.258h-.82V8.203h-2.46v4.977H6.59V6.563H4.129v6.617h-.82V9.023H.82v4.157H0V14h14v-.82Z"/><path fill="#7147E8" d="M14 3.281V0h-3.309v.82H12.6L8.64 4.752 5.36 1.471.12 6.683l.58.58L5.36 2.63l3.28 3.281L13.18 1.4v1.881H14Z"/></svg>
